X: 1
T: Angus Chisholm's Style
M: 4/4
L: 1/8
R: reel
K: Dmaj
|:g|f2 DF Adfa|Tg2 ed cdeg|f2 DF Adfa|({a}b2) (Tge) fdd:|
|:B|ADFA BGGB|efec dcBA|dfag fded|BGAG FDD:|
